!!!!SEGMENT: pl-kk--kk-i-382--093-007_haslinger--msza-benedictus.krn
!!!cenid: 18xx:1603
!!!COM: Haslinger
!!!COM-rismid: pe30052852
!!!CDT:
!!!CNT:
!!!OPR: Msza
!!!OTL: Benedictus
!!!OMV: 007
!!!PDT:
!!!AGN: Sacred; Mass
!!!SMS-siglum: PL-Kk
!!!SMS-shelfmark: Kk.I.382
!!!SMS-shelfwork: 093-007 M
!!!SMS-variant:
!!!SMS-altvar:
!!!NIFC-rismid: 1001142971
!!!URL-scan: http://repozytorium.nifc.pl/skany/pl-kk-nut--i-382
!!!ONB-nifc: S/T1 od 0056, T2 od 0131, A/B1 od 0201, B2 od 0274. Części Mszy: 1. Kyrie, 2. Gloria, 3. Graduale, 4. Credo, 5. Offertorium, 6. Sanctus, 7. Benedictus, 8. Agnus
**kern	**text	**dynam	**kern	**text	**dynam	**kern	**text	**dynam	**kern	**text	**dynam
*part4	*part4	*part4	*part2	*part2	*part2	*part3	*part3	*part3	*part1	*part1	*part1
*staff4	*staff4	*	*staff2	*staff2	*	*staff3	*staff3	*	*staff1	*staff1	*
*Ibass	*	*	*Ialto	*	*	*Itenor	*	*	*Itenor	*	*
*I"Basso II	*	*	*I"Alto vel Basso I	*	*	*I"Tenore II	*	*	*I"Tenor I	*	*
*I'B. II	*	*	*I'A vel B I	*	*	*I'T. II	*	*	*I'T I	*	*
*clefF4	*	*	*clefG2	*	*	*clefF4	*	*	*clefG2	*	*
*	*	*	*ITrd7c12	*	*	*	*	*	*ITrd7c12	*	*
*k[b-e-]	*	*	*k[b-e-]	*	*	*k[b-e-]	*	*	*k[b-e-]	*	*
*B-:	*	*	*B-:	*	*	*B-:	*	*	*B-:	*	*
*M4/4	*	*	*M4/4	*	*	*M4/4	*	*	*M4/4	*	*
*met(c)	*	*	*met(c)	*	*	*met(c)	*	*	*met(c)	*	*
*	*	*below	*	*	*	*	*	*	*	*	*
!LO:TX:i:t=Benedictus	!	!	!LO:TX:i:t=Benedictus	!	!	!LO:TX:i:t=Benedictus	!	!	!LO:TX:i:t=Benedictus	!	!
8.B-\	Be-	f	8.B-\	Be-	f	8.B-\	Be-	f	8.B-\	Be-	f
16B-\	-ne-	.	16B-\	-ne-	.	16B-\	-ne-	.	16B-\	-ne-	.
=1	=1	=1	=1	=1	=1	=1	=1	=1	=1	=1	=1
*2\right	*	*	*2\right	*	*	*2\right	*	*	*	*	*
!LO:TX:t=P:problem:2\right:global	!	!	!LO:TX:t=P:problem:2\right:global	!	!	!LO:TX:t=P:problem:2\right:global	!	!	!	!	!
2B-\	-di-	.	2B-\	-di-	.	2B-\	-di-	.	2B-/	-di-	.
4F\	-ctus	.	4F/	-ctus	.	4F\	-ctus	.	4F/	-ctus	.
4B-\	qui	.	4B-\	qui	.	4B-\	qui	.	4B-/	qui	.
=2	=2	=2	=2	=2	=2	=2	=2	=2	=2	=2	=2
*	*	*	*	*	*	*	*	*	*2\right	*	*
2d\	ve-	.	2d\	ve-	.	2d\	ve-	.	2d\	ve-	.
4B-\	-nit	.	4B-\	-nit	.	4B-\	-nit	.	4B-/	-nit	.
4F\	in	.	4F\	in	.	4F\	in	.	4F/	in	.
=3	=3	=3	=3	=3	=3	=3	=3	=3	=3	=3	=3
!LO:TX:t=P:problem:takt pominięty, dopisany na końcu wcześniejszej pięciolinii	!LO:LB:g=original	!	!	!LO:LB:g=original	!	!	!	!	!	!	!
4D\	no-	.	4D/	no-	.	4D\	no-	.	4D/	no-	.
8.D\	-mi-	.	8.D/	-mi-	.	8.D\	-mi-	.	8.D/	-mi-	.
16E-\	-ne	.	16E-/	-ne	.	16E-\	-ne	.	16E-/	-ne	.
4F\	do-	.	4F/	do-	.	4F\	do-	.	4F/	do-	.
4D\	-mi-	.	4D/	-mi-	.	4D\	-mi-	.	4D/	-mi-	.
=4	=4	=4	=4	=4	=4	=4	=4	=4	=4	=4	=4
!LO:LB:g=original	!	!	!	!	!	!	!	!	!	!	!
2BB-/	-ni	.	2BB-/	-ni	.	2BB-/	-ni	.	2BB-/	-ni	.
!	!	!	!	!	!LO:DY:t=po.	!	!	!	!	!	!
2r	.	.	4F/	be-	p	2r	.	.	4d\	be-	p
.	.	.	4E-/	-ne-	.	.	.	.	4c\	-ne-	.
=5	=5	=5	=5	=5	=5	=5	=5	=5	=5	=5	=5
!	!	!	!	!	!	!LO:TX:a:t=1.	!	!	!	!	!
4r	.	.	2G/	-dic-	.	1r	.	.	2e-\	-di-	.
8.BB-/	be-	p	.	.	.	.	.	.	.	.	.
16BB-/	-ne-	.	.	.	.	.	.	.	.	.	.
4BB-/	-di-	.	(4F/	-tus	.	.	.	.	4d\	-ctus	.
8BB-/	-ctus	.	4E/)	qui	.	.	.	.	4c#X\	qui	.
8BB-/	qui	.	.	.	.	.	.	.	.	.	.
=6	=6	=6	=6	=6	=6	=6	=6	=6	=6	=6	=6
4BB-/	ve-	.	4F/	ve-	.	4r	.	.	4d\	ve-	.
*	*	*	*	*	*	*	*	*below	*	*	*
4BB-/	-nit	.	4D/	-nit	.	8.B-\	Be-	p	4B-\	-nit	.
.	.	.	.	.	.	16B-\	-ne-	.	.	.	.
2r	.	.	4r	.	.	4B-\	-di-	.	4r	.	.
.	.	.	4F/	in	.	4BB-/	-ctus	.	4d\	in	.
=7	=7	=7	=7	=7	=7	=7	=7	=7	=7	=7	=7
!	!	!	!LO:LB:g=original	!	!	!LO:TX:b:t=1.	!	!	!LO:LB:g=original	!	!
4r	.	.	(4A-X/	no-	.	1r	.	.	(<4f\	no-	.
8.BB-/	be-	p	4G/)	.	.	.	.	.	4e-\)	.	.
16BB-/	-ne-	.	.	.	.	.	.	.	.	.	.
4BB-/	-di-	.	4F/	-mi-	.	.	.	.	4d\	-mi-	.
8BB-/	-ctus	.	4E/	-ne	.	.	.	.	4c#X\	-ne	.
8BB-/	qui	.	.	.	.	.	.	.	.	.	.
=8	=8	=8	=8	=8	=8	=8	=8	=8	=8	=8	=8
!LO:LB:g=original	!	!	!	!	!	!LO:LB:g=original	!	!	!	!	!
4BB-/	ve-	.	8.F/	do-	.	4r	.	.	8.d\	do-	.
.	.	.	16E-X/	-mi-	.	.	.	.	16c\	-mi-	.
4BB-/	-nir	.	4D/	-ni	.	8.B-\	be-	.	4B-\	-ni	.
.	.	.	.	.	.	16B-\	-ne-	.	.	.	.
2r	.	.	4r	.	.	4B-\	-di-	.	4r	.	.
.	.	.	8B-\	be-	.	4BB-/	-ctus	.	8d\	be-	.
.	.	.	8B-\	-ne-	.	.	.	.	8d\	-ne-	.
=9	=9	=9	=9	=9	=9	=9	=9	=9	=9	=9	=9
2r	.	.	2A/	-dic-	.	2r	.	.	(<4.f\	-di-	.
.	.	.	.	.	.	.	.	.	8e-\)	.	.
4r	.	.	4B-/	-tus	.	4r	.	.	4d\	-ctus	.
4BB-/	qui	.	4r	.	.	4D\	qui	.	4r	.	.
=10	=10	=10	=10	=10	=10	=10	=10	=10	=10	=10	=10
!	!	!	!	!	!	!	!	!	!LO:PB:g=original	!	!
2AA/	ve-	.	2r	.	.	4.F\	ve-	.	2r	.	.
.	.	.	.	.	.	8E-\	-nit	.	.	.	.
4BB-/	-nit	.	4r	.	.	4D\	in	.	4r	.	.
4BB-/	in	.	4B-\	in	.	4F\	no-	.	4d\	in	.
=11	=11	=11	=11	=11	=11	=11	=11	=11	=11	=11	=11
!	!	!	!LO:LB:g=original	!	!	!LO:PB:g=original	!	!	!	!	!
4BB-/	no-	.	4G/	no-	.	4En\	-mi-	.	4c\	no-	.
8BB-/	-mi-	.	8G/	-mi-	.	8E\	-ne	.	8c\	-mi-	.
8BB-/	-ne	.	8G/	-ne	.	8E\	Do-	.	8c\	-ne	.
4BB-/	Do-	.	4G/	Do-	.	4E\	-mi-	.	4c\	Do-	.
4BB-/	-mi-	.	4G/	-mi-	.	4E\	-ni	.	8d\L	-mi-	.
.	.	.	.	.	.	.	.	.	8c\J	.	.
=12	=12	=12	=12	=12	=12	=12	=12	=12	=12	=12	=12
!LO:SIC:v:l:s=-ni	!	!	!	!	!	!	!	!	!	!	!
2AA/	in	.	4F/	-ni	.	2F\	.	.	4c\	-ni	.
.	.	.	2.c\	in	.	.	.	.	(2f\	in	.
!LO:SIC:v:l:s=in	!	!	!	!	!	!	!	!	!	!	!
2AA/	no	.	.	.	.	2F\	in	.	.	.	.
.	.	.	.	.	.	.	.	.	4e\)	.	.
=13	=13	=13	=13	=13	=13	=13	=13	=13	=13	=13	=13
!LO:LB:g=original	!	!	!	!	!	!	!	!	!	!	!
4BB-/	no-	.	4B-\	no-	.	4F\	no-	.	4d\	no-	.
8BB-/	-mi-	.	8d\	-mi-	.	8B-\	-mi-	.	8g\	-mi-	.
8BB-/	-ne	.	8d\	-ni	.	8B-\	-ne	.	8g\	-ne	.
4C/	Do-	.	4c\	do-	.	4A\	do-	.	4f\	do-	.
4C/	-mi-	.	4c\	-mi-	.	4G\	-mi-	.	4e\	-mi-	.
=14	=14	=14	=14	=14	=14	=14	=14	=14	=14	=14	=14
!	!	!	!	!	!	!	!	!	!LO:LB:g=original	!	!
4F\	-ni	.	4A/	-ni	.	4F\	-ni	.	4f\	-ni	.
4r	.	.	8A/	be-	.	8F\	be-	.	8c\	be-	.
.	.	.	8A/	-ne-	.	8F\	-ne-	.	8c\	-ne-	.
!	!	!	!LO:LB:g=original	!	!	!	!	!	!	!	!
4r	.	.	(>4B-/	-di-	.	(4G\	-di-	.	2c\	-dic-	.
8.C/	be-	.	4G/)	.	.	4En\)	.	.	.	.	.
16C/	-ne-	.	.	.	.	.	.	.	.	.	.
=15	=15	=15	=15	=15	=15	=15	=15	=15	=15	=15	=15
!	!	!	!	!	!	!LO:LB:g=original	!	!	!	!	!
4F\	-dic-	.	4A/	-tus	.	4F\	-ctus	.	4c\	-tus	.
4FF/	-tus	.	4A/	qui	.	4F\	qui	.	4c\	qui	.
4r	.	.	(>4B-/	ve-	.	(4G\	ve-	.	2c\	ve-	.
4C\	qui	.	4G/)	.	.	4En\)	.	.	.	.	.
=16	=16	=16	=16	=16	=16	=16	=16	=16	=16	=16	=16
4F\	ve-	.	4A/	-nit	.	4F\	-nit	.	4c\	-nit	.
!	!	!LO:DY:a	!	!	!	!	!	!	!	!	!
8AA/	-nit	f	4c\	in	f	4F\	in	.	4c\	in	f
8AA/	in	.	.	.	.	.	.	.	.	.	.
!LO:LB:g=original	!	!	!	!	!	!	!	!	!	!	!
4BB-/	no-	.	4B-\	no-	.	4F\	no-	.	4d\	no-	.
8GG/	-mi-	.	8d\	-mi-	.	8B-\	-mi-	.	8g\	-mi-	.
8GG/	-ne	.	8d\	-ne	.	8B-\	-ne	.	8g\	-ne	.
=17	=17	=17	=17	=17	=17	=17	=17	=17	=17	=17	=17
4.C/	Do-	.	4.c\	Do-	.	4.A\	Do-	.	4.f\	Do-	.
8C/	-mi-	.	8c\	-mi-	.	8A\	-mi-	.	8f\	-mi-	.
2BBn/	-ni	.	2d\	-ne	.	2A-X\	-ni	.	2f\	-ni	.
=18	=18	=18	=18	=18	=18	=18	=18	=18	=18	=18	=18
!	!	!	!LO:LB:g=original	!	!LO:DY:b:t=po.	!	!	!	!LO:LB:g=original	!	!
4C/	no-	.	4c\	no-	p	4An\	no-	.	4f\	no-	.
8C/	-mi-	.	8c\	-mi-	.	8A\	-mi-	.	8f\	-mi-	.
8C/	-ne	.	8c\	-ne	.	8A\	-ne	.	8f\	-ne	.
!	!	!	!	!	!	!LO:LB:g=original	!	!	!	!	!
4.C/	do-	.	4c\	do-	.	4G\	do-	.	4e\	do-	.
.	.	.	4c\	-mi-	.	4G\	-mi-	.	4e\	-mi-	.
8C/	-mi-	.	.	.	.	.	.	.	.	.	.
=19	=19	=19	=19	=19	=19	=19	=19	=19	=19	=19	=19
2.F;\	-ni	.	2.c;\	-ni	.	2.A;<\	-ni	.	2.f;\	-ni	.
8.B-\	Be-	f	8.B-\	Be-	f	8.B-\	Be-	f	8.B-\	Be-	f
16B-\	-ne-	.	16B-\	-ne-	.	16B-\	-ne-	.	16B-\	-ne-	.
=20	=20	=20	=20	=20	=20	=20	=20	=20	=20	=20	=20
!LO:LB:g=original	!	!	!	!	!	!	!	!	!	!	!
2B-\	-di-	.	2B-\	-di-	.	2B-\	-di-	.	2B-\	-di-	.
4F\	-ctus	.	4F/	-ctus	.	4F\	-ctus	.	4F/	-ctus	.
4B-\	qui	.	4B-\	qui	.	4B-\	qui	.	4B-\	qui	.
=21	=21	=21	=21	=21	=21	=21	=21	=21	=21	=21	=21
2d\	ve-	.	2d\	ve-	.	2d\	ve-	.	2d\	ve-	.
4B-\	-nit	.	4B-\	-nit	.	4B-\	-nit	.	4B-/	-nit	.
4F\	in	.	4F/	in	.	4F\	in	.	4F/	in	.
=22	=22	=22	=22	=22	=22	=22	=22	=22	=22	=22	=22
!	!	!	!LO:LB:g=original	!	!	!	!	!	!LO:LB:g=original	!	!
4D\	no-	.	4D/	no-	.	4D\	no-	.	4D/	no-	.
8.D\	-mi-	.	8.D/	-mi-	.	8.D\	-mi-	.	8.D/	-mi-	.
16E-\	-ne	.	16E-/	-ni	.	16E-\	-ne	.	16E-/	-ne	.
4F\	do-	.	4F/	do-	.	4F\	do-	.	4F/	do-	.
4D\	-mi-	.	4D/	-mi-	.	4D\	-mi-	.	4D/	-mi-	.
=23	=23	=23	=23	=23	=23	=23	=23	=23	=23	=23	=23
2BB-/	-ni	.	2BB-/	-ni	.	2BB-/	-ni	.	2BB-/	-ni	.
!	!	!	!	!	!	!	!	!	!	!	!LO:DY:b
!	!	!	!	!	!LO:DY:t=po.	!	!	!	!	!	!LO:DY:t=po.
2r	.	.	4F/	be-	p	2r	.	.	4d\	be-	p
.	.	.	4E-/	-ne-	.	.	.	.	4c\	-ne-	.
=24	=24	=24	=24	=24	=24	=24	=24	=24	=24	=24	=24
!LO:LB:g=original	!	!	!	!	!	!LO:TX:b:t=1.	!	!	!	!	!
4r	.	.	2G/	-di-	.	1r	.	.	2e-\	-di-	.
!	!	!LO:DY:a	!	!	!	!	!	!	!	!	!
8.BB-/	be-	p	.	.	.	.	.	.	.	.	.
16BB-/	-ne-	.	.	.	.	.	.	.	.	.	.
4BB-/	-dic-	.	4F/	-tus	.	.	.	.	4d\	-ctus	.
8BB-/	-tus	.	4E/	qui	.	.	.	.	4c#X\	qui	.
8BB-/	qui	.	.	.	.	.	.	.	.	.	.
=25	=25	=25	=25	=25	=25	=25	=25	=25	=25	=25	=25
4BB-/	ve-	.	4F/	ve-	.	4r	.	.	4d\	ve-	.
4BB-/	-nit	.	4D/	-nit	.	8.B-\	be-	.	4B-\	-nit	.
.	.	.	.	.	.	16B-\	-ne-	.	.	.	.
2r	.	.	4r	.	.	4B-\	-di-	.	4r	.	.
.	.	.	4F/	in	.	4BB-/	-ctus	.	4d\	in	.
=26	=26	=26	=26	=26	=26	=26	=26	=26	=26	=26	=26
!	!	!	!LO:LB:g=original	!	!	!LO:TX:b:t=1.	!	!	!LO:LB:g=original	!	!
4r	.	.	(>4A-X/	no-	.	1r	.	.	(<4f\	no-	.
8.BB-/	be-	.	4G/)	.	.	.	.	.	4e-\)	.	.
16BB-/	-ne-	.	.	.	.	.	.	.	.	.	.
4BB-/	-di-	.	4F/	-mi-	.	.	.	.	4d\	-mi-	.
8BB-/	-ctus	.	4E/	-ne	.	.	.	.	4c#X\	-ne	.
8BB-/	qui	.	.	.	.	.	.	.	.	.	.
=27	=27	=27	=27	=27	=27	=27	=27	=27	=27	=27	=27
4BB-/	ve-	.	8.F/	do-	.	4r	.	.	8.d\	do-	.
.	.	.	16E-X/	-mi-	.	.	.	.	16c\	-mi-	.
4BB-/	-nit	.	4D/	-ni	.	8.B-\	Be-	.	4B-\	-ni	.
.	.	.	.	.	.	16B-\	-ne-	.	.	.	.
2r	.	.	4r	.	.	4B-\	-di-	.	4r	.	.
.	.	.	8B-\	be-	.	4BB-/	-ctus	.	8d\	be-	.
.	.	.	8B-\	-ne-	.	.	.	.	8d\	-ne-	.
=28	=28	=28	=28	=28	=28	=28	=28	=28	=28	=28	=28
!LO:PB:g=original	!	!	!	!	!	!	!	!	!	!	!
2r	.	.	2A/	-di-	.	2r	.	.	(<4.f\	-di-	.
.	.	.	.	.	.	.	.	.	8e-\)	.	.
4r	.	.	4B-/	-ctus	.	4r	.	.	4d\	-ctus	.
4BB-/	qui	.	4r	.	.	4D\	qui	.	4r	.	.
=29	=29	=29	=29	=29	=29	=29	=29	=29	=29	=29	=29
!	!	!	!LO:PB:g=original	!	!	!	!	!	!LO:LB:g=original	!	!
2AA^>/	ve-	.	2r	.	.	(4.F\	ve-	.	2r	.	.
.	.	.	.	.	.	8E-\)	.	.	.	.	.
!	!	!	!	!	!	!LO:TX:t=P:problem:"Solo" dopisane olowkiem	!	!	!	!	!
4BB-/	-nit	.	4r	.	.	4D\	-nit	.	4r	.	.
4BB-/	in	.	4B-\	in	.	4F\	in	.	4d\	in	.
=30	=30	=30	=30	=30	=30	=30	=30	=30	=30	=30	=30
4E-\	no-	.	4B-\	no-	.	4G\	no-	.	4c\	no-	.
8E-\	-mi-	.	8B-\	-mi-	.	8G\	-mi-	.	8c\	-mi-	.
8E-\	-ne	.	8B-\	-ne	.	8G\	-ne	.	8c\	-ne	.
4.F\	Do-	.	4.B-\	do-	.	4.A-X\	Do-	.	4.d\	do-	.
8F\	-mi-	.	8B-\	-mi-	.	8A-\	-mi-	.	8d\	-mi-	.
=31	=31	=31	=31	=31	=31	=31	=31	=31	=31	=31	=31
4G\	-ni	.	4B-\	-ni	.	4G\	-ni	.	4e-\	-ni	.
4G\	in	f	4B-\	in	f	4r	.	.	4e-\	in	f
!	!	!	!	!	!	!LO:LB:g=original	!	!	!	!	!
4F\	no-	.	4d\	no-	.	4B-\	no-	f	4f\	no-	.
8En\	-mi-	.	8c\	-mi-	.	8B-\	-mi-	.	8g\	-mi-	.
8E\	-ne	.	8c\	-ne	.	8B-\	-ne	.	8g\	-ne	.
=32	=32	=32	=32	=32	=32	=32	=32	=32	=32	=32	=32
!LO:LB:g=original	!	!	!	!	!LO:DY:b:t=po.	!	!	!	!	!	!
2F\	do-	.	(2d\	Do-	p	(<4B-\	do-	p	2.f\	Do-	.
.	.	.	.	.	.	4Bn\	.	.	.	.	.
2FF/	-mi-	.	4e-\)	.	.	4c\	.	.	.	.	.
.	.	.	4c\	-mi-	.	4A\)	-mi-	.	4f\	-mi-	.
=33	=33	=33	=33	=33	=33	=33	=33	=33	=33	=33	=33
!	!	!	!LO:LB:g=original	!	!	!	!	!	!LO:LB:g=original	!	!
4BB-/	-ni	.	4B-\	-ni	.	4B-\	-ni	.	4d\	-ni	.
4G\	in	f	4B-\	in	f	4r	.	.	4e-\	in	f
4F\	no-	.	4d\	no-	.	4r	.	.	4f\	no-	.
8En\	-mi-	.	8c\	-mi-	.	4B-\	in	f	8g\	-mi-	.
8E\	-ne	.	8c\	-ne	.	.	.	.	8g\	-ne	.
=34	=34	=34	=34	=34	=34	=34	=34	=34	=34	=34	=34
4F\	do-	.	4d\	no-	.	4B-\	no-	.	4f\	no-	.
4r	.	.	4r	.	.	4r	.	.	8e-\L	.	.
.	.	.	.	.	.	.	.	.	8d\J	.	.
4F\	-mi-	.	4d\	-mi-	.	4B-\	-mi-	.	8c/L	.	.
.	.	.	.	.	.	.	.	.	8B-/	.	.
4F\	-ne	.	4d\	-ne	.	4B-\	-ne	.	8A/	.	.
.	.	.	.	.	.	.	.	.	8G/J	.	.
=35	=35	=35	=35	=35	=35	=35	=35	=35	=35	=35	=35
2F\	do-	.	(4.d\	Do-	.	(4B-\	Do-	.	8F/L	.	.
.	.	.	.	.	.	.	.	.	8B-/J	.	.
.	.	.	.	.	.	2F\)	.	.	8B-\	-mi-	.
.	.	.	8c\	.	.	.	.	.	8d\	-ne	.
2FF/	-mi-	.	4.A/)	.	.	.	.	.	4.d\	Do-	.
.	.	.	.	.	.	4E-\	-mi-	.	.	.	.
.	.	.	8A/	-mi-	.	.	.	.	8c\	-mi-	.
=36	=36	=36	=36	=36	=36	=36	=36	=36	=36	=36	=36
2BB-;/	-ni.	.	2.F;/	-ni	.	2.D;\	-ni	.	2.B-;\	-ni	.
4r	.	.	.	.	.	.	.	.	.	.	.
=|!	=|!	=|!	=|!	=|!	=|!	=|!	=|!	=|!	=|!	=|!	=|!
*k[b-e-a-]	*	*	*k[b-e-a-]	*	*	*k[b-e-a-]	*	*	*k[b-e-a-]	*	*
*E-:	*	*	*E-:	*	*	*E-:	*	*	*E-:	*	*
*M3/4	*	*	*M3/4	*	*	*M3/4	*	*	*M3/4	*	*
!	!	!	!LO:LB:g=original	!	!	!	!	!	!	!	!
!LO:TX:b:t=Vivace	!	!	!LO:TX:b:i:t=Vivace	!	!	!LO:TX:b:t=Vivace	!	!	!LO:TX:i:b:t=Vivace	!	!
4r	.	.	4B-\	O-	.	4r	.	.	4r	.	.
=37	=37	=37	=37	=37	=37	=37	=37	=37	=37	=37	=37
!LO:TX:a:t=3.	!	!	!	!	!	!LO:TX:b:t=1.	!	!	!LO:TX:a:t=3.	!	!
2.r	.	.	4.c\	-san-	.	2.r	.	.	2.r	.	.
.	.	.	8c\	-na	.	.	.	.	.	.	.
.	.	.	8c\	in	.	.	.	.	.	.	.
.	.	.	8c\	ex-	.	.	.	.	.	.	.
=38	=38	=38	=38	=38	=38	=38	=38	=38	=38	=38	=38
2.r	.	.	4B-\	-cel-	.	4r	.	.	2.r	.	.
.	.	.	4A-X\	.	.	4r	.	.	.	.	.
.	.	.	4G\	.	.	4E-\	O-	.	.	.	.
=39	=39	=39	=39	=39	=39	=39	=39	=39	=39	=39	=39
!	!	!	!	!	!	!LO:LB:g=original	!	!	!	!	!
2.r	.	.	(8A-\L	.	.	4.F\	-san-	.	2.r	.	.
.	.	.	8G\	.	.	.	.	.	.	.	.
.	.	.	8A-\	.	.	.	.	.	.	.	.
.	.	.	8B-\	.	.	8F\	-na	.	.	.	.
.	.	.	8c\	.	.	8F\	in	.	.	.	.
.	.	.	8d\J)	.	.	8F\	ex-	.	.	.	.
=40	=40	=40	=40	=40	=40	=40	=40	=40	=40	=40	=40
4r	.	.	4e-\	.	.	4E-\	-cel-	.	4r	.	.
4r	.	.	4E-/	-sis	.	4G\	.	.	4r	.	.
!	!	!LO:DY:a	!	!	!	!	!	!	!	!	!
4BB-/	O-	f	4r	.	.	4B-\	.	.	4d\	O-	f
=41	=41	=41	=41	=41	=41	=41	=41	=41	=41	=41	=41
!	!	!	!LO:LB:g=original	!	!	!	!	!	!	!	!
!	!	!	!LO:TX:a:t=1.	!	!	!	!	!	!	!	!
!	!	!	!LO:TX:b:t=1.	!	!	!	!	!	!	!	!
4.C/	-san-	.	2.r	.	.	8G\L	.	.	4.e-\	-san-	.
.	.	.	.	.	.	8F\	.	.	.	.	.
.	.	.	.	.	.	8E-\	.	.	.	.	.
8C/	-na	.	.	.	.	8F\	.	.	8e-\	-na	.
8C/	in	.	.	.	.	8G\	.	.	8e-\	in	.
8C/	ex-	.	.	.	.	8A-\J	.	.	8e-\	ex-	.
=42	=42	=42	=42	=42	=42	=42	=42	=42	=42	=42	=42
!LO:LB:g=original	!	!	!	!	!	!	!	!	!LO:LB:g=original	!	!
4BB-/	-cel-	.	4r	.	.	4B-\	-sis	.	4d\	-cel-	.
4AA-/	.	.	4r	.	.	4r	.	.	(4c\	.	.
4GG/	.	.	4B-\	O-	.	4E-\	O-	.	4B-\	.	.
=43	=43	=43	=43	=43	=43	=43	=43	=43	=43	=43	=43
!	!	!	!	!	!	!LO:LB:g=original	!	!	!	!	!
4AA-/	.	.	(>2.A-/	-san-	.	(4E-\	-san-	.	8c\L	.	.
.	.	.	.	.	.	.	.	.	8B-\	.	.
4FF/	.	.	.	.	.	4A-\	.	.	8c\	.	.
.	.	.	.	.	.	.	.	.	8d\	.	.
4BB-/	.	.	.	.	.	4F\)	.	.	8e-\)	.	.
.	.	.	.	.	.	.	.	.	8f\J	.	.
=44	=44	=44	=44	=44	=44	=44	=44	=44	=44	=44	=44
4E-\	.	.	4G/)	.	.	4E-\	-na	.	4g\	.	.
4E-\	-sis	.	4G/	-na	.	(4E-\	o-	.	4e-\	-sis	.
4r	.	.	4B-\	O-	.	4G\)	.	.	4e-\	o-	.
=45	=45	=45	=45	=45	=45	=45	=45	=45	=45	=45	=45
!LO:TX:a:t=1.	!	!	!	!	!	!	!	!	!	!	!
2.r	.	.	4.c\	-san-	.	4.A-\	-san-	.	4.e-\	-san-	.
.	.	.	8c\	-na	.	8A-\	-na	.	8e-\	-na	.
.	.	.	8c\	in	.	8A-\	in	.	8e-\	in	.
.	.	.	8c\	ex-	.	8A-\	ex-	.	8e-\	ex-	.
=46	=46	=46	=46	=46	=46	=46	=46	=46	=46	=46	=46
!	!	!	!	!	!	!	!	!	!LO:LB:g=original	!	!
4r	.	.	(4B-/	-cel-	.	(4G\	-cel-	.	(4e-\	-cel-	.
4r	.	.	4A-/	.	.	4F\	.	.	4d\	.	.
4BB-/	O-	.	4G/)	.	.	4E-\)	.	.	4c\)	.	.
=47	=47	=47	=47	=47	=47	=47	=47	=47	=47	=47	=47
!	!	!	!LO:LB:g=original	!	!	!LO:LB:g=original	!	!	!	!	!
4.BB-/	-san-	.	2F/	-sis	.	2D\	-sis	.	2B-\	-sis	.
8BB-/	-na	.	.	.	.	.	.	.	.	.	.
8BB-/	in	.	8F/	in	.	8D\	in	.	8B-\	in	.
8BB-/	ex-	.	8F/	ex-	.	8D\	ex-	.	8B-\	ex-	.
=48	=48	=48	=48	=48	=48	=48	=48	=48	=48	=48	=48
!LO:LB:g=original	!	!	!	!	!	!	!	!	!	!	!
4C/	-cel-	.	2F/	-cel-	.	4E-\	-cel-	.	(4A/	-cel-	.
4D/	.	.	.	.	.	4F\	.	.	2B-/)	.	.
4E-/	.	.	4G/	.	.	4E-\	.	.	.	.	.
=49	=49	=49	=49	=49	=49	=49	=49	=49	=49	=49	=49
4En\	.	.	4B-\	.	.	4G\	.	.	(2c\	.	.
4F\	.	.	4A-X/	.	.	4A-X\	.	.	.	.	.
4G\	.	.	4c\	.	.	4B-\	.	.	4e\)	.	.
=50	=50	=50	=50	=50	=50	=50	=50	=50	=50	=50	=50
4A-X\	.	.	4c\	.	.	4A-\	.	.	2f\	.	.
4An\	.	.	4e-\	.	.	4c\	.	.	.	.	.
4B-\	-sis	.	4d\	-sis	.	4B-\	-sis	.	4f\	-sis	.
=51	=51	=51	=51	=51	=51	=51	=51	=51	=51	=51	=51
!	!	!	!	!	!	!	!	!	!LO:LB:g=original	!	!
4Bn\	in	.	4f\	in	.	4d\	in	.	2g\	in	.
4c\	.	.	2e-\	ex-	.	2c\	ex-	.	.	.	.
4An\	ex-	.	.	.	.	.	.	.	[4f\	ex-	.
=52	=52	=52	=52	=52	=52	=52	=52	=52	=52	=52	=52
!	!	!	!	!	!	!LO:LB:g=original	!	!	!	!	!
(4B-X\	-cel-	.	(2d\	-cel-	.	2B-\	-cel-	.	4f\]	.	.
4G\)	.	.	.	.	.	.	.	.	[2e-X\	-cel-	.
4An\	.	.	[4c\)	.	.	[4An\	.	.	.	.	.
=53	=53	=53	=53	=53	=53	=53	=53	=53	=53	=53	=53
!	!	!	!LO:LB:g=original	!	!	!	!	!	!	!	!
4F#X\	.	.	4c\]	.	.	4An\]	.	.	2e-\]	.	.
4G\	.	.	[2B-\	.	.	2G\	.	.	.	.	.
4En\	.	.	.	.	.	.	.	.	[4d\	.	.
=54	=54	=54	=54	=54	=54	=54	=54	=54	=54	=54	=54
2.Fn\	.	.	2B-\]	.	.	2.F\	.	.	4d\]	.	.
.	.	.	.	.	.	.	.	.	2c\	.	.
.	.	.	4A\	.	.	.	.	.	.	.	.
=55	=55	=55	=55	=55	=55	=55	=55	=55	=55	=55	=55
2BB-/	-sis	.	4B-\	-sis	.	4D\	-sis	.	4B-\	-sis	.
.	.	.	4r	.	.	4r	.	.	4r	.	.
4BB-/	o-	.	4B-\	O-	.	4B-\	o-	.	4r	.	.
=56	=56	=56	=56	=56	=56	=56	=56	=56	=56	=56	=56
!	!	!	!	!	!	!	!	!	!LO:TX:a:t=1.	!	!
[2.BB-/	-san-	.	4.c\	-san-	.	4.A-X\	-san-	.	2.r	.	.
.	.	.	8c\	-na	.	8A-\	-na	.	.	.	.
.	.	.	8c\	in	.	8A-\	in	.	.	.	.
.	.	.	8c\	ex-	.	8A-\	ex-	.	.	.	.
=57	=57	=57	=57	=57	=57	=57	=57	=57	=57	=57	=57
2.BB-/]	.	.	(4B-\	-cel-	.	(4G\	-cel-	.	4r	.	.
.	.	.	4d\)	.	.	4F\)	.	.	4r	.	.
.	.	.	4e-\	-sis	.	4G\	-sis	.	4e-\	O-	.
=58	=58	=58	=58	=58	=58	=58	=58	=58	=58	=58	=58
!	!	!	!LO:LB:g=original	!	!	!LO:LB:g=original	!	!	!LO:LB:g=original	!	!
2.BB-/	-na	.	2c\	in	.	2A-\	in	.	4.f\	-san-	.
.	.	.	.	.	.	.	.	.	8f\	-na	.
.	.	.	4c\	ex-	.	4A-\	ex-	.	8f\	in	.
.	.	.	.	.	.	.	.	.	8f\	ex-	.
=59	=59	=59	=59	=59	=59	=59	=59	=59	=59	=59	=59
2BB-/	in	.	(4B-/	-cel-	.	(4G\	-cel-	.	(4e-\	-cel-	.
.	.	.	4A-/	.	.	4F\)	.	.	4d\	.	.
4BB-/	ex-	.	4G/)	-sis	.	4E-\	-sis	.	4c\)	.	.
=60	=60	=60	=60	=60	=60	=60	=60	=60	=60	=60	=60
2.BB-/	-cel-	.	(4F/	in	.	(4D\	in	.	[2.B-\	.	.
.	.	.	4A-/)	.	.	4F\)	.	.	.	.	.
.	.	.	4G/	ex-	.	4E-\	ex-	.	.	.	.
=61	=61	=61	=61	=61	=61	=61	=61	=61	=61	=61	=61
2.BB-/	.	.	2.F/	-cel-	.	(2E-\	-cel-	.	2.B-\]	.	.
.	.	.	.	.	.	4D\)	.	.	.	.	.
=62	=62	=62	=62	=62	=62	=62	=62	=62	=62	=62	=62
2.E-/ 2.EE-;/	-sis.	.	2.G;/	-sis	.	2.E-;\	-sis	.	2.B-;\	-sis	.
==	==	==	==	==	==	==	==	==	==	==	==
*-	*-	*-	*-	*-	*-	*-	*-	*-	*-	*-	*-
!!!system-decoration: [(s1,s2,s3,s4)]
!!!RDF**kern: > = above
!!!RDF**kern: < = below
!!!EED: Andrzej Borzym
!!!EST: 2021-03-26
!!!AIN: 1 alto 1 bass 2 tenor
!!!ENC: Mateusz Solarz
!!!END: 2021-03-08
